X:353
T: ES RITT EIN JAEGERSMANN
N: F0620
O: Europa, Mitteleuropa, Deutschland
R: Staende -, Jaeger - Lied
M: 6/8
L: 1/16
K: E
B2 | B4G2B3AG2 | F2F2F2G4
B2 | e4B2G4E2 | B8z2
B2 | B4G2B3AG2 | F2F2F2G4
B2 | e4B2G4E2 | B8z2
B2 | B2F2B2B2G2B2 | B2A2G2F4
B2 | B2F2B2B2G2B2 | B2A2G2F4
E2 | E4G2G4B2 | B6-B4
B2 | B2e2B2A2G2F2 | B6e2z2
B2 | B2e2B2A2G2F2 | E6-E2z2
B2 | B2e2B2A2G2F2 | E6-E2z2

@@@ Tune index: 5784
